assets/sonr-icons/refresh.svg

<svg xmlns="http://www.w3.org/2000/svg" width="24" height="24" fill="none" viewBox="0 0 24 24"><path fill="#000" d="M6.56972 6.56994C9.5699 3.57065 14.4321 3.57079 17.4312 6.56984 18.4943 7.63299 19.1798 8.92891 19.4899 10.2928 19.6074 10.8098 20.1218 11.1337 20.6388 11.0161 21.1558 10.8986 21.4797 10.3842 21.3621 9.86718 20.9742 8.16112 20.1157 6.53904 18.7888 5.21219 15.0399 1.46323 8.9621 1.46338 5.21228 5.21209 4.44597 5.97817 3.83987 6.61961 3.36 7.15576V4.32001C3.36 3.78982 2.9302 3.36001 2.4 3.36001 1.86981 3.36001 1.44 3.78982 1.44 4.32001V10.08C1.44 10.6102 1.86981 11.04 2.4 11.04H8.16C8.6902 11.04 9.12 10.6102 9.12 10.08 9.12 9.54982 8.6902 9.12001 8.16 9.12001H4.19943C4.69097 8.52785 5.43839 7.70093 6.56972 6.56994ZM4.51011 13.7072C4.39257 13.1902 3.87817 12.8664 3.36117 12.9839 2.84417 13.1014 2.52035 13.6158 2.63789 14.1328 3.02578 15.8389 3.88434 17.461 5.21118 18.7878 8.96014 22.5368 15.0379 22.5366 18.7877 18.7879 19.554 18.0219 20.1601 17.3804 20.64 16.8443V19.68C20.64 20.2102 21.0698 20.64 21.6 20.64 22.1302 20.64 22.56 20.2102 22.56 19.68V13.92C22.56 13.3898 22.1302 12.96 21.6 12.96H15.84C15.3098 12.96 14.88 13.3898 14.88 13.92 14.88 14.4502 15.3098 14.88 15.84 14.88H19.8006C19.309 15.4722 18.5616 16.2991 17.4303 17.4301 14.4301 20.4294 9.56787 20.4292 6.56882 17.4302 5.50567 16.367 4.82022 15.0711 4.51011 13.7072Z"/></svg>

<svg xmlns="http://www.w3.org/2000/svg" width="24" height="24" fill="none"><path fill="currentColor" d="M6.57 6.57a7.68 7.68 0 0 1 12.92 3.723.96.96 0 1 0 1.872-.426 9.57 9.57 0 0 0-2.573-4.655c-3.75-3.749-9.827-3.749-13.577 0A49 49 0 0 0 3.36 7.156V4.32a.96.96 0 1 0-1.92 0v5.76c0 .53.43.96.96.96h5.76a.96.96 0 1 0 0-1.92H4.2c.491-.592 1.238-1.42 2.37-2.55m-2.06 7.137a.96.96 0 0 0-1.872.426 9.57 9.57 0 0 0 2.573 4.655c3.75 3.749 9.827 3.749 13.577 0a49 49 0 0 0 1.852-1.944v2.836a.96.96 0 1 0 1.92 0v-5.76a.96.96 0 0 0-.96-.96h-5.76a.96.96 0 1 0 0 1.92h3.96c-.491.592-1.238 1.42-2.37 2.55a7.68 7.68 0 0 1-12.92-3.723"/></svg>
